static/img/react-logo.svg

<svg xmlns="http://www.w3.org/2000/svg" width="100%" height="100%" viewBox="0 0 100 100" fill-rule="evenodd" stroke-linejoin="round" stroke-miterlimit="2"><g transform="matrix(.179673 0 0 .179673 -24.396339 -2.663582)" fill="#61dafb"><path d="M666.3 296.5c0-32.5-40.7-63.3-103.1-82.4 14.4-63.6 8-114.2-20.2-130.4-6.5-3.8-14.1-5.6-22.4-5.6v22.3c4.6 0 8.3.9 11.4 2.6 13.6 7.8 19.5 37.5 14.9 75.7-1.1 9.4-2.9 19.3-5.1 29.4-19.6-4.8-41-8.5-63.5-10.9-13.5-18.5-27.5-35.3-41.6-50 32.6-30.3 63.2-46.9 84-46.9V78c-27.5 0-63.5 19.6-99.9 53.6-36.4-33.8-72.4-53.2-99.9-53.2v22.3c20.7 0 51.4 16.5 84 46.6-14 14.7-28 31.4-41.3 49.9-22.6 2.4-44 6.1-63.6 11-2.3-10-4-19.7-5.2-29-4.7-38.2 1.1-67.9 14.6-75.8 3-1.8 6.9-2.6 11.5-2.6V78.5c-8.4 0-16 1.8-22.6 5.6-28.1 16.2-34.4 66.7-19.9 130.1-62.2 19.2-102.7 49.9-102.7 82.3 0 32.5 40.7 63.3 103.1 82.4-14.4 63.6-8 114.2 20.2 130.4 6.5 3.8 14.1 5.6 22.5 5.6 27.5 0 63.5-19.6 99.9-53.6 36.4 33.8 72.4 53.2 99.9 53.2 8.4 0 16-1.8 22.6-5.6 28.1-16.2 34.4-66.7 19.9-130.1 62-19.1 102.5-49.9 102.5-82.3zm-130.2-66.7c-3.7 12.9-8.3 26.2-13.5 39.5-4.1-8-8.4-16-13.1-24-4.6-8-9.5-15.8-14.4-23.4 14.2 2.1 27.9 4.7 41 7.9zm-45.8 106.5c-7.8 13.5-15.8 26.3-24.1 38.2-14.9 1.3-30 2-45.2 2-15.1 0-30.2-.7-45-1.9-8.3-11.9-16.4-24.6-24.2-38-7.6-13.1-14.5-26.4-20.8-39.8 6.2-13.4 13.2-26.8 20.7-39.9 7.8-13.5 15.8-26.3 24.1-38.2 14.9-1.3 30-2 45.2-2 15.1 0 30.2.7 45 1.9 8.3 11.9 16.4 24.6 24.2 38 7.6 13.1 14.5 26.4 20.8 39.8-6.3 13.4-13.2 26.8-20.7 39.9zm32.3-13a428.56 428.56 0 0 1 13.8 39.8c-13.1 3.2-26.9 5.9-41.2 8 4.9-7.7 9.8-15.6 14.4-23.7 4.6-8 8.9-16.1 13-24.1zM421.2 430c-9.3-9.6-18.6-20.3-27.8-32 9 .4 18.2.7 27.5.7 9.4 0 18.7-.2 27.8-.7-9 11.7-18.3 22.4-27.5 32zm-74.4-58.9c-14.2-2.1-27.9-4.7-41-7.9 3.7-12.9 8.3-26.2 13.5-39.5 4.1 8 8.4 16 13.1 24s9.5 15.8 14.4 23.4zM420.7 163c9.3 9.6 18.6 20.3 27.8 32-9-.4-18.2-.7-27.5-.7-9.4 0-18.7.2-27.8.7 9-11.7 18.3-22.4 27.5-32zm-74 58.9c-4.9 7.7-9.8 15.6-14.4 23.7-4.6 8-8.9 16-13 24a428.56 428.56 0 0 1-13.8-39.8c13.1-3.1 26.9-5.8 41.2-7.9zm-90.5 125.2c-35.4-15.1-58.3-34.9-58.3-50.6s22.9-35.6 58.3-50.6c8.6-3.7 18-7 27.7-10.1 5.7 19.6 13.2 40 22.5 60.9-9.2 20.8-16.6 41.1-22.2 60.6-9.9-3.1-19.3-6.5-28-10.2zM310 490c-13.6-7.8-19.5-37.5-14.9-75.7 1.1-9.4 2.9-19.3 5.1-29.4 19.6 4.8 41 8.5 63.5 10.9 13.5 18.5 27.5 35.3 41.6 50-32.6 30.3-63.2 46.9-84 46.9-4.5-.1-8.3-1-11.3-2.7zm237.2-76.2c4.7 38.2-1.1 67.9-14.6 75.8-3 1.8-6.9 2.6-11.5 2.6-20.7 0-51.4-16.5-84-46.6 14-14.7 28-31.4 41.3-49.9 22.6-2.4 44-6.1 63.6-11 2.3 10.1 4.1 19.8 5.2 29.1zm38.5-66.7c-8.6 3.7-18 7-27.7 10.1-5.7-19.6-13.2-40-22.5-60.9 9.2-20.8 16.6-41.1 22.2-60.6 9.9 3.1 19.3 6.5 28.1 10.2 35.4 15.1 58.3 34.9 58.3 50.6-.1 15.7-23 35.6-58.4 50.6z" fill-rule="nonzero"/><circle cx="420.9" cy="296.5" r="45.7"/></g></svg>

<?xml version="1.0" encoding="UTF-8" standalone="no"?>
<!DOCTYPE svg PUBLIC "-//W3C//DTD SVG 1.1//EN" "http://www.w3.org/Graphics/SVG/1.1/DTD/svg11.dtd">
<svg width="100%" height="100%" viewBox="0 0 100 100" version="1.1" xmlns="http://www.w3.org/2000/svg" xmlns:xlink="http://www.w3.org/1999/xlink" xml:space="preserve" xmlns:serif="http://www.serif.com/" style="fill-rule:evenodd;clip-rule:evenodd;stroke-linejoin:round;stroke-miterlimit:2;">
    <g transform="matrix(2.08333,0,0,2.08333,50,50)">
        <g transform="matrix(1,0,0,1,-24,-24)">
            <g transform="matrix(0.086243,0,0,0.086243,-11.7103,-1.27856)">
                <g id="react">
                    <g>
                        <path d="M666.3,296.5C666.3,264 625.6,233.2 563.2,214.1C577.6,150.5 571.2,99.9 543,83.7C536.5,79.9 528.9,78.1 520.6,78.1L520.6,100.4C525.2,100.4 528.9,101.3 532,103C545.6,110.8 551.5,140.5 546.9,178.7C545.8,188.1 544,198 541.8,208.1C522.2,203.3 500.8,199.6 478.3,197.2C464.8,178.7 450.8,161.9 436.7,147.2C469.3,116.9 499.9,100.3 520.7,100.3L520.7,78C493.2,78 457.2,97.6 420.8,131.6C384.4,97.8 348.4,78.4 320.9,78.4L320.9,100.7C341.6,100.7 372.3,117.2 404.9,147.3C390.9,162 376.9,178.7 363.6,197.2C341,199.6 319.6,203.3 300,208.2C297.7,198.2 296,188.5 294.8,179.2C290.1,141 295.9,111.3 309.4,103.4C312.4,101.6 316.3,100.8 320.9,100.8L320.9,78.5C312.5,78.5 304.9,80.3 298.3,84.1C270.2,100.3 263.9,150.8 278.4,214.2C216.2,233.4 175.7,264.1 175.7,296.5C175.7,329 216.4,359.8 278.8,378.9C264.4,442.5 270.8,493.1 299,509.3C305.5,513.1 313.1,514.9 321.5,514.9C349,514.9 385,495.3 421.4,461.3C457.8,495.1 493.8,514.5 521.3,514.5C529.7,514.5 537.3,512.7 543.9,508.9C572,492.7 578.3,442.2 563.8,378.8C625.8,359.7 666.3,328.9 666.3,296.5ZM536.1,229.8C532.4,242.7 527.8,256 522.6,269.3C518.5,261.3 514.2,253.3 509.5,245.3C504.9,237.3 500,229.5 495.1,221.9C509.3,224 523,226.6 536.1,229.8ZM490.3,336.3C482.5,349.8 474.5,362.6 466.2,374.5C451.3,375.8 436.2,376.5 421,376.5C405.9,376.5 390.8,375.8 376,374.6C367.7,362.7 359.6,350 351.8,336.6C344.2,323.5 337.3,310.2 331,296.8C337.2,283.4 344.2,270 351.7,256.9C359.5,243.4 367.5,230.6 375.8,218.7C390.7,217.4 405.8,216.7 421,216.7C436.1,216.7 451.2,217.4 466,218.6C474.3,230.5 482.4,243.2 490.2,256.6C497.8,269.7 504.7,283 511,296.4C504.7,309.8 497.8,323.2 490.3,336.3ZM522.6,323.3C528,336.7 532.6,350.1 536.4,363.1C523.3,366.3 509.5,369 495.2,371.1C500.1,363.4 505,355.5 509.6,347.4C514.2,339.4 518.5,331.3 522.6,323.3ZM421.2,430C411.9,420.4 402.6,409.7 393.4,398C402.4,398.4 411.6,398.7 420.9,398.7C430.3,398.7 439.6,398.5 448.7,398C439.7,409.7 430.4,420.4 421.2,430ZM346.8,371.1C332.6,369 318.9,366.4 305.8,363.2C309.5,350.3 314.1,337 319.3,323.7C323.4,331.7 327.7,339.7 332.4,347.7C337.1,355.7 341.9,363.5 346.8,371.1ZM420.7,163C430,172.6 439.3,183.3 448.5,195C439.5,194.6 430.3,194.3 421,194.3C411.6,194.3 402.3,194.5 393.2,195C402.2,183.3 411.5,172.6 420.7,163ZM346.7,221.9C341.8,229.6 336.9,237.5 332.3,245.6C327.7,253.6 323.4,261.6 319.3,269.6C313.9,256.2 309.3,242.8 305.5,229.8C318.6,226.7 332.4,224 346.7,221.9ZM256.2,347.1C220.8,332 197.9,312.2 197.9,296.5C197.9,280.8 220.8,260.9 256.2,245.9C264.8,242.2 274.2,238.9 283.9,235.8C289.6,255.4 297.1,275.8 306.4,296.7C297.2,317.5 289.8,337.8 284.2,357.3C274.3,354.2 264.9,350.8 256.2,347.1ZM310,490C296.4,482.2 290.5,452.5 295.1,414.3C296.2,404.9 298,395 300.2,384.9C319.8,389.7 341.2,393.4 363.7,395.8C377.2,414.3 391.2,431.1 405.3,445.8C372.7,476.1 342.1,492.7 321.3,492.7C316.8,492.6 313,491.7 310,490ZM547.2,413.8C551.9,452 546.1,481.7 532.6,489.6C529.6,491.4 525.7,492.2 521.1,492.2C500.4,492.2 469.7,475.7 437.1,445.6C451.1,430.9 465.1,414.2 478.4,395.7C501,393.3 522.4,389.6 542,384.7C544.3,394.8 546.1,404.5 547.2,413.8ZM585.7,347.1C577.1,350.8 567.7,354.1 558,357.2C552.3,337.6 544.8,317.2 535.5,296.3C544.7,275.5 552.1,255.2 557.7,235.7C567.6,238.8 577,242.2 585.8,245.9C621.2,261 644.1,280.8 644.1,296.5C644,312.2 621.1,332.1 585.7,347.1Z" style="fill:rgb(97,218,251);fill-rule:nonzero;"/>
                        <circle cx="420.9" cy="296.5" r="45.7" style="fill:rgb(97,218,251);"/>
                    </g>
                </g>
            </g>
        </g>
    </g>
</svg>
